actions/22x22-light/view-calendar-upcoming-events.svg

<svg viewBox="0 0 22 22" xmlns="http://www.w3.org/2000/svg"><path d="m4 3c-.5540164 0-1 .4459836-1 1v14c0 .554016.4459836 1 1 1h14c .554016 0 1-.445984 1-1v-14c0-.5540164-.445984-1-1-1zm6.998047 3.2539062c.351569 0 .634765.3027272.634765.6777344v5.1152344c0 .375007-.283196.675781-.634765.675781s-.634766-.300774-.634766-.675781v-5.1152344c0-.3750072.283197-.6777344.634766-.6777344zm.001953 7.6699218c.252438 0 .466886.08798.644531.265625.177625.177645.267578.392093.267578.644531 0 .252439-.089933.46884-.267578.646485-.177645.177624-.392093.265625-.644531.265625s-.466886-.08798-.644531-.265625c-.177625-.177645-.267578-.394046-.267578-.646485 0-.252438.089933-.466886.267578-.644531.177645-.177625.392093-.265625.644531-.265625z" fill="#4d4d4d"/></svg>

<svg xmlns="http://www.w3.org/2000/svg" viewBox="0 0 22 22">
  <defs id="defs3051">
    <style type="text/css" id="current-color-scheme">
      .ColorScheme-Text {
        color:#4d4d4d
      }
      </style>
  </defs>
 <path 
     style="fill:currentColor;fill-opacity:1;stroke:none"      
	 class="ColorScheme-Text"
        d="M 4 3 C 3.4459836 3 3 3.4459836 3 4 L 3 18 C 3 18.554016 3.4459836 19 4 19 L 18 19 C 18.554016 19 19 18.554016 19 18 L 19 4 C 19 3.4459836 18.554016 3 18 3 L 4 3 z M 10.998047 6.2539062 C 11.349616 6.2539062 11.632812 6.5566334 11.632812 6.9316406 L 11.632812 12.046875 C 11.632812 12.421882 11.349616 12.722656 10.998047 12.722656 C 10.646478 12.722656 10.363281 12.421882 10.363281 12.046875 L 10.363281 6.9316406 C 10.363281 6.5566334 10.646478 6.2539062 10.998047 6.2539062 z M 11 13.923828 C 11.252438 13.923828 11.466886 14.011808 11.644531 14.189453 C 11.822156 14.367098 11.912109 14.581546 11.912109 14.833984 C 11.912109 15.086423 11.822176 15.302824 11.644531 15.480469 C 11.466886 15.658093 11.252438 15.746094 11 15.746094 C 10.747562 15.746094 10.533114 15.658114 10.355469 15.480469 C 10.177844 15.302824 10.087891 15.086423 10.087891 14.833984 C 10.087891 14.581546 10.177824 14.367098 10.355469 14.189453 C 10.533114 14.011828 10.747562 13.923828 11 13.923828 z "
     />
</svg>
